src/assets/icons/adwaita/mimetypes/text-x-kotlin.svg

<?xml version="1.0" encoding="UTF-8" standalone="no"?>
<svg
   height="128px"
   viewBox="0 0 128 128"
   width="128px"
   version="1.1"
   id="text_x_kotlin_svg35"
   xml:space="preserve"
   xmlns:xlink="http://www.w3.org/1999/xlink"
   xmlns="http://www.w3.org/2000/svg"
   xmlns:svg="http://www.w3.org/2000/svg"><defs
     id="text_x_kotlin_defs39"><radialGradient
       id="text_x_kotlin_radialGradient381"
       cx="0"
       cy="0"
       r="1"
       gradientUnits="userSpaceOnUse"
       gradientTransform="matrix(68.7291,0,0,68.7291,-10.161738,52.751212)"
       fx="0"
       fy="0"
       fr="0"
       spreadMethod="pad"><stop
         offset="0.003"
         stop-color="#EF4857"
         id="text_x_kotlin_stop379"
         style="stop-color:#c67179;stop-opacity:1;" /><stop
         offset="0.469"
         stop-color="#D211EC"
         id="text_x_kotlin_stop380" /><stop
         offset="1"
         stop-color="#7F52FF"
         id="text_x_kotlin_stop381" /></radialGradient><radialGradient
       id="text_x_kotlin_kotlin-logo-large_svg__a"
       cx="0"
       cy="0"
       r="1"
       gradientUnits="userSpaceOnUse"
       gradientTransform="matrix(68.7291,0,0,68.7291,-10.161738,52.751212)"
       xlink:href="#text_x_kotlin_radialGradient381"><stop
         offset="0.003"
         stop-color="#EF4857"
         id="text_x_kotlin_stop3" /><stop
         offset="0.469"
         stop-color="#D211EC"
         id="text_x_kotlin_stop4-9" /><stop
         offset="1"
         stop-color="#7F52FF"
         id="text_x_kotlin_stop5" /></radialGradient><radialGradient
       xlink:href="#text_x_kotlin_kotlin-logo-large_svg__a"
       id="text_x_kotlin_radialGradient6"
       cx="89.013039"
       cy="29.59996"
       fx="89.013039"
       fy="29.59996"
       r="44.02198"
       gradientTransform="matrix(2.5639275,1.5370632e-5,0,2.4793139,-128.3126,-56.201643)"
       gradientUnits="userSpaceOnUse" /></defs><linearGradient
     id="text_x_kotlin_a"
     gradientUnits="userSpaceOnUse"
     x1="36"
     x2="60"
     y1="68"
     y2="68"><stop
       offset="0"
       stop-color="#ed336c"
       id="text_x_kotlin_stop2" /><stop
       offset="1"
       stop-color="#ffa348"
       id="text_x_kotlin_stop4" /></linearGradient><linearGradient
     id="text_x_kotlin_b"
     gradientTransform="matrix(0 1 -1 0 144 -32)"
     gradientUnits="userSpaceOnUse"
     x1="72"
     x2="96"
     y1="68"
     y2="68"><stop
       offset="0"
       stop-color="#404ce6"
       id="text_x_kotlin_stop7" /><stop
       offset="1"
       stop-color="#c061cb"
       id="text_x_kotlin_stop9" /></linearGradient><linearGradient
     id="text_x_kotlin_c"
     gradientUnits="userSpaceOnUse"
     x1="68.84919"
     x2="95.257637"
     y1="84"
     y2="84"><stop
       offset="0"
       stop-color="#33d1c6"
       id="text_x_kotlin_stop12" /><stop
       offset="1"
       stop-color="#1c25d8"
       id="text_x_kotlin_stop14" /></linearGradient><path
     style="display:inline;fill:url(#text_x_kotlin_radialGradient6);fill-opacity:1;stroke:none;stroke-width:0.124938;stroke-linejoin:round;stroke-miterlimit:4;stroke-dasharray:none;stroke-opacity:1;enable-background:new"
     clip-path="none"
     d="M 27.996067,8.0000006 H 77.971105 L 107.999,37.902957 108,111.92599 c 8e-5,4.42978 -3.61039,8.01809 -8.040179,8.01809 H 27.996006 c -4.429786,0 -7.996005,-3.56622 -7.996005,-7.99601 V 15.996006 c 0,-4.429786 3.566219,-7.9960054 7.996005,-7.9960054 z"
     id="text_x_kotlin_path4411" /><path
     style="display:inline;opacity:1;vector-effect:none;fill:#ffffff;fill-opacity:0.3;stroke:none;stroke-width:0.125;stroke-linecap:butt;stroke-linejoin:round;stroke-miterlimit:4;stroke-dasharray:none;stroke-dashoffset:0;stroke-opacity:1;enable-background:new"
     d="M 77.957104,8.0000006 V 30.000002 c 0,4.432 3.610527,7.923448 8.042527,7.923448 L 108,37.91795 Z"
     id="text_x_kotlin_path4413" /><path
     d="m 94.000001,104.00001 h -60 V 44 h 60 l -30.621,29.565001 z"
     fill="url(#text_x_kotlin_kotlin-logo-large_svg__a)"
     id="text_x_kotlin_path3"
     style="fill:#ffffff;fill-opacity:0.9;stroke-width:3"
     clip-path="none"
     mask="none" /></svg>

<svg xmlns="http://www.w3.org/2000/svg" xmlns:xlink="http://www.w3.org/1999/xlink" xml:space="preserve" width="128" height="128" viewBox="0 0 128 128"><defs><radialGradient id="text_x_kotlin_a" cx="0" cy="0" r="1" fr="0" fx="0" fy="0" gradientTransform="translate(-10.162 52.751)scale(68.7291)" gradientUnits="userSpaceOnUse" spreadMethod="pad"><stop offset=".003" stop-color="#ef4857" style="stop-color:#c67179;stop-opacity:1"/><stop offset=".469" stop-color="#d211ec"/><stop offset="1" stop-color="#7f52ff"/></radialGradient><radialGradient xlink:href="#text_x_kotlin_a" id="text_x_kotlin_b" cx="0" cy="0" r="1" gradientTransform="translate(-10.162 52.751)scale(68.7291)" gradientUnits="userSpaceOnUse"><stop offset=".003" stop-color="#ef4857"/><stop offset=".469" stop-color="#d211ec"/><stop offset="1" stop-color="#7f52ff"/></radialGradient><radialGradient xlink:href="#text_x_kotlin_b" id="text_x_kotlin_c" cx="89.013" cy="29.6" r="44.022" fx="89.013" fy="29.6" gradientTransform="matrix(2.56393 0 0 2.47931 -128.313 -56.202)" gradientUnits="userSpaceOnUse"/></defs><path d="M27.996 8h49.975L108 37.903l.001 74.023c0 4.43-3.61 8.018-8.04 8.018H27.996A7.98 7.98 0 0 1 20 111.948V15.996A7.98 7.98 0 0 1 27.996 8" style="display:inline;fill:url(#text_x_kotlin_c);fill-opacity:1;stroke:none;stroke-width:.124938;stroke-linejoin:round;stroke-miterlimit:4;stroke-dasharray:none;stroke-opacity:1"/><path d="M77.957 8v22c0 4.432 3.61 7.923 8.043 7.923l22-.005Z" style="display:inline;opacity:1;vector-effect:none;fill:#fff;fill-opacity:.3;stroke:none;stroke-width:.125;stroke-linecap:butt;stroke-linejoin:round;stroke-miterlimit:4;stroke-dasharray:none;stroke-dashoffset:0;stroke-opacity:1"/><path fill="url(#text_x_kotlin_b)" d="M94 104H34V44h60L63.379 73.565z" style="fill:#fff;fill-opacity:.9;stroke-width:3"/></svg>
